src/icons/solid/briefcase.svg

<svg width="20" height="20" viewBox="0 0 20 20" fill="none" xmlns="http://www.w3.org/2000/svg">

<path fill-rule="evenodd" clip-rule="evenodd" d="M6 6V5C6 3.34315 7.34315 2 9 2H11C12.6569 2 14 3.34315 14 5V6H16C17.1046 6 18 6.89543 18 8V11.5708C15.5096 12.4947 12.8149 12.9999 10 12.9999C7.18514 12.9999 4.49037 12.4947 2 11.5707V8C2 6.89543 2.89543 6 4 6H6ZM8 5C8 4.44772 8.44772 4 9 4H11C11.5523 4 12 4.44772 12 5V6H8V5ZM9 10C9 9.44772 9.44772 9 10 9H10.01C10.5623 9 11.01 9.44772 11.01 10C11.01 10.5523 10.5623 11 10.01 11H10C9.44772 11 9 10.5523 9 10Z" fill="#4A5568"/>
<path d="M2 13.6923V16C2 17.1046 2.89543 18 4 18H16C17.1046 18 18 17.1046 18 16V13.6923C15.4872 14.5404 12.7964 14.9999 10 14.9999C7.20363 14.9999 4.51279 14.5404 2 13.6923Z" fill="#4A5568"/>
</svg>

<svg xmlns="http://www.w3.org/2000/svg" viewBox="0 0 20 20" fill="currentColor">
  <path fill-rule="evenodd" d="M6 6V5a3 3 0 013-3h2a3 3 0 013 3v1h2a2 2 0 012 2v3.57A22.952 22.952 0 0110 13a22.95 22.95 0 01-8-1.43V8a2 2 0 012-2h2zm2-1a1 1 0 011-1h2a1 1 0 011 1v1H8V5zm1 5a1 1 0 011-1h.01a1 1 0 110 2H10a1 1 0 01-1-1z" clip-rule="evenodd"/>
  <path d="M2 13.692V16a2 2 0 002 2h12a2 2 0 002-2v-2.308A24.974 24.974 0 0110 15c-2.796 0-5.487-.46-8-1.308z"/>
</svg>
